_assets/svgs/solid/plug.svg

<svg xmlns="http://www.w3.org/2000/svg" viewBox="0 0 384 512"><path d="M256 144V32c0-17.673 14.327-32 32-32s32 14.327 32 32v112h-64zm112 16H16c-8.837 0-16 7.163-16 16v32c0 8.837 7.163 16 16 16h16v32c0 77.406 54.969 141.971 128 156.796V512h64v-99.204c73.031-14.825 128-79.39 128-156.796v-32h16c8.837 0 16-7.163 16-16v-32c0-8.837-7.163-16-16-16zm-240-16V32c0-17.673-14.327-32-32-32S64 14.327 64 32v112h64z"/></svg>
<!--
Font Awesome Free 5.4.1 by @fontawesome - https://fontawesome.com
License - https://fontawesome.com/license/free (Icons: CC BY 4.0, Fonts: SIL OFL 1.1, Code: MIT License)
-->

<svg xmlns="http://www.w3.org/2000/svg" viewBox="0 0 384 512"><path d="M320,32a32,32,0,0,0-64,0v96h64Zm48,128H16A16,16,0,0,0,0,176v32a16,16,0,0,0,16,16H32v32A160.07,160.07,0,0,0,160,412.8V512h64V412.8A160.07,160.07,0,0,0,352,256V224h16a16,16,0,0,0,16-16V176A16,16,0,0,0,368,160ZM128,32a32,32,0,0,0-64,0v96h64Z"/></svg>
